X:1
T:Title
%%score { ( 1 4 5 ) | ( 2 3 ) }
L:1/8
Q:1/4=108
M:4/4
K:Bb
V:1 treble nm="Grand Piano"
V:4 treble 
V:5 treble 
V:2 bass 
V:3 bass 
V:1
 [Fd]2 [Fd]2 [Fd]3 [Ec] | [DB]2 [DB]2 [EG]2 [DF]2 | [FB]2 c2 d3 d | e2 d2 c4 | %4
w: Charles~H.~Gabriel * * *||||
 [Fd]2 [Fd]2 [Fd]3 [Ec] | [DB]2 [DB]2 [EG]2 [DF]2 | [CF]2 [C=EG]2 A2 B2 | c2 c2 c2 d2 | %8
w: ||||
 e3 d c2 c2 | d3 c B2 B2 | c3 [CGB] [CFA]2 [DGB]2 | [CFA]2 [B,=EG]2 [A,F]4 | %12
w: ||||
 [B,CG]2 [CFA]2 [B,FB]3 [B,F] | [B,DG]2 [B,F_A]2 [B,EG]2 [B,FB]2 | [Fe]2 e2 z4 | %15
w: |||
 [DFB]2 [CEA]2 [DB]4 | d6 d2 | e6 z2 | e8 | f8 | z4 z2 e2 | (3edc (3edc (3d z c d2 | z4 z2 d2 | %23
w: ||||||||
 c2 d2 e4 | d6 d2 | e6 z2 | e8 | f8 | f2 B2 e2 d2 | [Bg]2 [Fc]2 [Ff]2 [FB]2 | %30
w: |||||||
 [Fe]2 e2 d4[K:bass][K:treble] | B2 c2 d4 | f2 B2 e2 d2 | [Bg]2 [Fc]2 [Ff]2 [EAf]2 | %34
w: ||||
[M:9/8] [DFBfb]6- [DFBfb][F_Af][Ge] |[M:6/4] [Fd]3 [Ec]3 [DB]6 |] %36
w: ||
V:2
 [B,,B,]2 [B,,B,]2 [B,,B,]3 [B,,B,] | [B,,B,]2 [B,,B,]2 [B,,B,]2 [B,,B,]2 | %2
 [D,B,]2[K:treble] [F,A,F]2 [B,F]3 [B,F] | [A,CF]2 [B,F]2[K:bass] [F,A,F]4 | %4
 [B,,B,]2 [B,,B,]2 [B,,B,]3 [B,,B,] | [B,,B,]2 [B,,B,]2 [B,,B,]2 [B,,B,]2 | %6
 A,,2 C,2[K:treble] [F,CF]2 [G,C=E]2 | [A,CF]2 [G,B,=E]2 A,2[K:bass] B,2 | %8
 [F,CF]3 [F,B,F] [F,A,F]2 [F,A,E]2 | [^F,A,D]3 [F,A,D] [G,B,D]2 [G,B,_D]2 | [=E,G,C]3 E, F,2 B,,2 | %11
 C,2 C,2 F,4 | =E,2 _E,2 D,3 D, | B,,2 D,2 E,2 D,2 | z2[K:treble] F2[K:bass] z4 | %15
 F,2 F,2 [B,,B,]4 | [B,,B,]2 [B,,F,]2 [B,,B,]2 [B,,F,]2 | z4 z2 [F,C]2[K:treble] | %18
 [F,A,F]2[K:bass] [F,C]2 [F,A,]2 z z/[K:treble] F/ | [DB]>C D>E F>E D2 | z4 .C2 G2 | %21
 [A,CF]2 [F,A,F]2 (3F z [F,A,F] [B,F]2 | [A,CF]2[K:bass] [G,B,=E]2 [F,A,F]2 [C,B,]2 | %23
 [F,A,F]2 [F,B,F]2 [F,CF]4 | [B,,B,]2 [B,,F,]2 [B,,B,]2 [B,,F,]2 | z4 z2 [F,C]2[K:treble] | %26
 [F,A,F]2[K:bass] [F,C]2 [F,A,]2 z z/[K:treble] F/ | [DB]>C D>E F>E D2 | %28
 [_A,DB]2 [A,DF]2[K:bass] [G,B,E]2 [F,B,F]2 | [=E,C]2 [_E,A,]2 [D,B,]2 [_D,B,]2 | %30
 z2[K:treble] F2 z4[K:bass] | [G,B,D]2[K:treble] [F,A,F]2 [B,F]4 | %32
 [_A,DB]2 [A,DF]2 [G,B,E]2[K:bass] [F,B,F]2 | [=E,C]2 [_E,A,]2 [D,B,]2 C,2 | %34
[M:9/8] B,,>C,D,- D,/F,/ B,2- B,[D,B,][E,B,] |[M:6/4] [F,B,]3 [F,A,]3 [B,,B,]6 |] %36
V:3
 x8 | x8 | x2[K:treble] x6 | x4[K:bass] x4 | x8 | x8 | x4[K:treble] x4 | z4 [F,F]4[K:bass] | x8 | %9
 x8 | x8 | x8 | x8 | x8 | [C,A,]2[K:treble] [G,B,]>A,[K:bass] B,3 E, | x8 | x8 | %17
 [C,F,]2 [F,C]2 [F,C]2 z z/[K:treble] G/ | z4[K:bass] z2 [F,E]2[K:treble] | B,8 | %20
 [G,=B,G]2 [B,DG]2 (3G z [G,B,G] C->[_B,C] | z4 .B,2 z2 | x2[K:bass] x6 | x8 | x8 | %25
 [C,F,]2 [F,C]2 [F,C]2 z z/[K:treble] G/ | z4[K:bass] z2 [F,E]2[K:treble] | B,8 | x4[K:bass] x4 | %29
 x8 | [C,A,]2[K:treble] [G,B,]>A, [B,F]3[K:bass] [F,A,E] | x2[K:treble] x6 | x6[K:bass] x2 | x8 | %34
[M:9/8] x9 |[M:6/4] x12 |] %36
V:4
 x8 | x8 | x8 | x8 | x8 | x8 | x8 | x8 | x8 | x8 | x8 | x8 | x8 | x8 | %14
 z z/ F,/ z z/ C/ [Fd]3 [EGc] | x8 | F>G A>B c>B A>G | B>A A>_A z z/ F/ =A>c | %18
 z z/ G/ A>B c>B c>A | z z/ A/ B>c d>c B>A | (3fed (3fed (3e z d z z/ ^F/ | x8 | %22
 c2 c2 c2 =E->[Ec] | x8 | F>G A>B c>B A>G | B>A A>_A z z/ F/ =A>c | z z/ G/ A>B c>c c>A | %27
 z z/ A/ B>c d>c B2 | x8 | x8 | z z/ F,/ z z/ C/ z z/[K:bass] B,,/ D,[K:treble]c | x8 | x8 | x8 | %34
[M:9/8] x9 |[M:6/4] x12 |] %36
V:5
 x8 | x8 | x8 | x8 | x8 | x8 | x8 | x8 | x8 | x8 | x8 | x8 | x8 | x8 | x8 | x8 | x8 | z4 =A2 z2 | %18
 x8 | x8 | x8 | x8 | x8 | x8 | x8 | z4 =A2 z2 | x8 | x8 | x8 | x8 | %30
 x11/2[K:bass] x3/2[K:treble] x | x8 | x8 | x8 |[M:9/8] x9 |[M:6/4] x12 |] %36

